packages/icons/svg/Fill/speaker.svg

<svg fill="none" height="24" viewBox="0 0 24 24" width="24" xmlns="http://www.w3.org/2000/svg"><path clip-rule="evenodd" d="m13 8.00055c0 .552-.448 1-1 1s-1-.448-1-1 .448-1 1-1 1 .448 1 1zm-2.5 7.49995c0-.827.673-1.5 1.5-1.5s1.5.673 1.5 1.5-.673 1.5-1.5 1.5-1.5-.673-1.5-1.5zm1.5 3.4999c-1.93 0-3.50002-1.57-3.50002-3.5s1.57002-3.5 3.50002-3.5 3.5 1.57 3.5 3.5-1.57 3.5-3.5 3.5zm0-13.99991c1.654 0 3 1.346 3 3s-1.346 3.00001-3 3.00001-3-1.34601-3-3.00001 1.346-3 3-3zm5-3h-10.00002c-1.654 0-3 1.346-3 3v14.00001c0 1.654 1.346 3 3 3h10.00002c1.654 0 3-1.346 3-3v-14.00001c0-1.654-1.346-3-3-3z" fill="#6b7280" fill-rule="evenodd"/></svg>

<svg width="24" height="24" viewBox="0 0 24 24" fill="none" xmlns="http://www.w3.org/2000/svg">
<g id="Icon/Fill/speaker">
<path id="Mask" fill-rule="evenodd" clip-rule="evenodd" d="M13 8.0007C13 8.5527 12.552 9.0007 12 9.0007C11.448 9.0007 11 8.5527 11 8.0007C11 7.4487 11.448 7.0007 12 7.0007C12.552 7.0007 13 7.4487 13 8.0007ZM10.5 15.5007C10.5 14.6737 11.173 14.0007 12 14.0007C12.827 14.0007 13.5 14.6737 13.5 15.5007C13.5 16.3277 12.827 17.0007 12 17.0007C11.173 17.0007 10.5 16.3277 10.5 15.5007ZM12 19.0007C10.07 19.0007 8.5 17.4307 8.5 15.5007C8.5 13.5707 10.07 12.0007 12 12.0007C13.93 12.0007 15.5 13.5707 15.5 15.5007C15.5 17.4307 13.93 19.0007 12 19.0007ZM12 5.0007C13.654 5.0007 15 6.3467 15 8.0007C15 9.6547 13.654 11.0007 12 11.0007C10.346 11.0007 9 9.6547 9 8.0007C9 6.3467 10.346 5.0007 12 5.0007ZM17 2.0007H7C5.346 2.0007 4 3.3467 4 5.0007V19.0007C4 20.6547 5.346 22.0007 7 22.0007H17C18.654 22.0007 20 20.6547 20 19.0007V5.0007C20 3.3467 18.654 2.0007 17 2.0007Z" fill="#000000"/>
</g>
</svg>
